X: 189
T: Kings Of Kerry
C:Mike Scott, Sharon Shannon & Steve Wickham (Waterboys)
R: slide
M: 12/8
L: 1/8
K:Gmaj
A |"G" ~B3 BAG "C"E2G "G"D2G | "C"E2G "G"D2B "D" ~A3 AGA |
"G"~B3 BAG "C"E2G "G"D2d |1 dBG "D" ABA "G"G3 G2 :|2dBG "D" ABA "G"G3 GBd||
"G"~g3 ged "C"e2g "G"d2c |~B3 BAG "D" ~A3 ABd |"G"~g3 ged "C"e2g "G"d2c|BcB "D" ABA "G"~G3 GBd |
"G"~g3 ged "C"e2g "G"d2c |~B3 BAG "D"~A3 AGA |"G"~B3 BAG "C"E2G "G"D2d | dBG "D" ABA "G"G3 G2|]


